Yaru++/actions/16/edit-clone-unlink.svg

<svg height="24" width="24" xmlns="http://www.w3.org/2000/svg">
  <g fill="#808080">
    <path d="m3 2v17h1v-16h13.475352l-.03049 2h-11.444862v17h8v-1h-7l.2013089-15h12.7986911v4h1v-5h-2.587098l-.0027-3h-13.1035614z"/>
    <g transform="translate(-19.254237 9.01695)">
      <path d="m35.288136 8.8834746v5.6250004h7.5v-5.6250004zm.625.625h6.25v4.3750004h-6.25z"/>
      <path d="m39.038136 4.5084746a3.125 3.125 0 0 0 -3.125 3.125v1.25h.625v-1.25c0-1.38875 1.11125-2.5 2.5-2.5s2.5 1.11125 2.5 2.5v1.25h.625v-1.25a3.125 3.125 0 0 0 -3.125-3.125z"/>
    </g>
  </g>
</svg>

<svg xmlns="http://www.w3.org/2000/svg" width="24" height="24" version="1.1">
 <path style="fill:#808080" d="M 3,2 V 19 H 4 V 3 h 13.475352 l -0.03049,2 H 6 v 17 h 8 V 21 H 7 L 7.2013089,6 H 20 v 4 h 1 V 5 h -2.587098 l -0.0027,-3 H 5.3066406 Z"/>
 <g style="font-weight:400;fill:#808080" font-weight="400" transform="translate(-19.254237,9.0169495)">
  <path d="m 35.288136,8.8834746 v 5.6250004 h 7.5 V 8.8834746 Z m 0.625,0.625 h 6.25 v 4.3750004 h -6.25 z" overflow="visible"/>
  <path d="m 39.038136,4.5084746 a 3.125,3.125 0 0 0 -3.125,3.125 v 1.25 h 0.625 v -1.25 c 0,-1.38875 1.11125,-2.5 2.5,-2.5 1.38875,0 2.5,1.11125 2.5,2.5 v 1.25 h 0.625 v -1.25 a 3.125,3.125 0 0 0 -3.125,-3.125 z" overflow="visible"/>
 </g>
</svg>
